scalable/actions/appointment.svg

<svg height="16" width="16.000092" xmlns="http://www.w3.org/2000/svg"><g fill="#bebebe" stroke-width="1.154881"><path d="m7.4462705 4.4511872a.57749838.57749838 0 0 0 -.4691705.5774407v2.8872032h-1.7323219a.57749838.57749838 0 1 0 0 1.1548812h2.3097626a.57749838.57749838 0 0 0 .5774406-.5774406v-3.4646438a.57749838.57749838 0 0 0 -.6857108-.5774407z"/><path d="m7.5067283.9865434c-4.1321883 0-7.5067283 3.3745515-7.5067283 7.5067283 0 4.1321763 3.37454 7.5067283 7.5067283 7.5067283 3.1101527 0 5.7911207-1.911919 6.9270317-4.619525h.0023c.184555-.439114.326343-.900138.424059-1.378188.03535-.1729609.05801-.3507294.0812-.5278178.0095-.072619.02642-.1432872.03383-.2165402.000228-.00222-.000225-.00454 0-.00677.02502-.2493465.03835-.5021308.03835-.7578908 0-3.110179-1.911919-5.7911287-4.619526-6.9270321v-.0022521c-.4391552-.1845546-.9001787-.3263423-1.3782299-.4240579-.1729598-.0353537-.3507293-.0580104-.5278168-.0812026-.3219651-.042166-.6479872-.0721801-.981198-.0721801zm0 2.3097626c.3349835 0 .659837.03956.9766867.099248.063099.011681.1250088.026691.1872171.040601.2649497.060165.5216594.1381984.7691689.2368409.048018.019098.097095.035878.1443602.056391 1.3138438.5700222 2.3243418 1.6711056 2.8037448 3.0315634h-.009c.09661.2730081.177534.5512032.234585.8390934.05705.2878902.09023.5854757.09023.8932285 0 .3349821-.03956.659838-.09925.9766866-.01168.063099-.02669.1250089-.0406.1872166-.06017.2649494-.138198.5216606-.236841.7691686-.0191.04802-.03588.0971-.05639.144361-.570027 1.313843-1.671109 2.324339-3.0315638 2.803745v-.009c-.2730081.09661-.5512031.177534-.8390934.234585-.2913689.05011-.5868905.09023-.8932285.09023-2.8838887 0-5.1969657-2.313089-5.1969657-5.1969658 0-.360486.037133-.711877.1060145-1.0511224.4821396-2.374745 2.5675225-4.1458708 5.0909252-4.1458708z"/></g></svg>

<?xml version="1.0" encoding="UTF-8" standalone="no"?>
<svg
   xmlns:dc="http://purl.org/dc/elements/1.1/"
   xmlns:cc="http://creativecommons.org/ns#"
   xmlns:rdf="http://www.w3.org/1999/02/22-rdf-syntax-ns#"
   xmlns:svg="http://www.w3.org/2000/svg"
   xmlns="http://www.w3.org/2000/svg"
   xmlns:sodipodi="http://sodipodi.sourceforge.net/DTD/sodipodi-0.dtd"
   xmlns:inkscape="http://www.inkscape.org/namespaces/inkscape"
   height="16"
   width="16.000092"
   version="1.1"
   id="svg10"
   sodipodi:docname="appointment.svg"
   inkscape:version="0.92.2 2405546, 2018-03-11">
  <metadata
     id="metadata16">
    <rdf:RDF>
      <cc:Work
         rdf:about="">
        <dc:format>image/svg+xml</dc:format>
        <dc:type
           rdf:resource="http://purl.org/dc/dcmitype/StillImage" />
      </cc:Work>
    </rdf:RDF>
  </metadata>
  <defs
     id="defs14" />
  <sodipodi:namedview
     pagecolor="#ffffff"
     bordercolor="#666666"
     borderopacity="1"
     objecttolerance="10"
     gridtolerance="10"
     guidetolerance="10"
     inkscape:pageopacity="0"
     inkscape:pageshadow="2"
     inkscape:window-width="1920"
     inkscape:window-height="1138"
     id="namedview12"
     showgrid="false"
     inkscape:zoom="20.85965"
     inkscape:cx="14.082434"
     inkscape:cy="7.3134542"
     inkscape:window-x="1920"
     inkscape:window-y="38"
     inkscape:window-maximized="0"
     inkscape:current-layer="svg10" />
  <path
     style="fill:#bebebe;stroke-width:1.15488124"
     inkscape:connector-curvature="0"
     id="path4"
     d="M 7.4462705,4.4511872 A 0.57749838,0.57749838 0 0 0 6.9771,5.0286279 V 7.9158311 H 5.2447781 a 0.57749838,0.57749838 0 1 0 0,1.1548812 H 7.5545407 A 0.57749838,0.57749838 0 0 0 8.1319813,8.4932717 V 5.0286279 A 0.57749838,0.57749838 0 0 0 7.4462705,4.4511872 Z" />
  <path
     style="fill:#bebebe;stroke-width:1.15488124"
     d="M 7.5067283,0.9865434 C 3.37454,0.9865434 0,4.3610949 0,8.4932717 0,12.625448 3.37454,16 7.5067283,16 10.616881,16 13.297849,14.088081 14.43376,11.380475 h 0.0023 c 0.184555,-0.439114 0.326343,-0.900138 0.424059,-1.378188 0.03535,-0.1729609 0.05801,-0.3507294 0.0812,-0.5278178 0.0095,-0.072619 0.02642,-0.1432872 0.03383,-0.2165402 2.28e-4,-0.00222 -2.25e-4,-0.00454 0,-0.00677 0.02502,-0.2493465 0.03835,-0.5021308 0.03835,-0.7578908 0,-3.110179 -1.911919,-5.7911287 -4.619526,-6.9270321 V 1.563984 C 9.9548178,1.3794294 9.4937943,1.2376417 9.0157431,1.1399261 8.8427833,1.1045724 8.6650138,1.0819157 8.4879263,1.0587235 8.1659612,1.0165575 7.8399391,0.9865434 7.5067283,0.9865434 Z m 0,2.3097626 c 0.3349835,0 0.659837,0.03956 0.9766867,0.099248 0.063099,0.011681 0.1250088,0.026691 0.1872171,0.040601 0.2649497,0.060165 0.5216594,0.1381984 0.7691689,0.2368409 0.048018,0.019098 0.097095,0.035878 0.1443602,0.056391 1.3138438,0.5700222 2.3243418,1.6711056 2.8037448,3.0315634 h -0.009 c 0.09661,0.2730081 0.177534,0.5512032 0.234585,0.8390934 0.05705,0.2878902 0.09023,0.5854757 0.09023,0.8932285 0,0.3349821 -0.03956,0.659838 -0.09925,0.9766866 -0.01168,0.063099 -0.02669,0.1250089 -0.0406,0.1872166 -0.06017,0.2649494 -0.138198,0.5216606 -0.236841,0.7691686 -0.0191,0.04802 -0.03588,0.0971 -0.05639,0.144361 -0.570027,1.313843 -1.671109,2.324339 -3.0315638,2.803745 v -0.009 c -0.2730081,0.09661 -0.5512031,0.177534 -0.8390934,0.234585 -0.2913689,0.05011 -0.5868905,0.09023 -0.8932285,0.09023 -2.8838887,0 -5.1969657,-2.313089 -5.1969657,-5.1969658 0,-0.360486 0.037133,-0.711877 0.1060145,-1.0511224 C 2.8979427,5.0674318 4.9833256,3.296306 7.5067283,3.296306 Z"
     id="path6"
     inkscape:connector-curvature="0" />
</svg>
